X: 37365
T: Sleamhnán Lios Póil
R: slide
M: 12/8
K: Dmajor
|:FGF A2d c/d/cB A2G|FGF D2F E3 AAG|
FGF A2d c/d/cB A2G|1 FGF EFE D3 AAG:|2 FGF EFE D2A B2c||
dcd eed c2B A2c|d2f e/f/ed B3- B2c|
dcd e2d c2B A2G|FGF EFE D3 d3|
d3 e2d c2B A2c|d2f e/f/ed B3 c3|
def e/f/ed c2B A2G|FGF EFE D2A AAG||

